X: 17254
T: Herbert The Sherbert
R: jig
M: 6/8
K: Eminor
D|:~E3 ~e3|cBA {^A}B2A|GBA GFE|FAG FED|
~E3 ~e3|cBA {^A}B2A|GBA GFE|AGF E2D:|
|:EFG {E}F3|EFG {E}F3|e2f gfe|ded {^A}B3|
ded {^G}A3|ded {F}G3|d2e dBG|1 AGF E2D:|2 AGF E3||
|:gbg faf|efe {^A}B3|gbg faf|efe ^d3|gbg faf|
efe {^A}B3|1 cBc d3|BAB {^d}e3:|2 cde dcB|AGF E2D||

